!!!SOCIAL_FUNCTION:	songs connected with legends
!!!PDT:	1929
!!!OTL: No_19_See_My_Scalp_Hanging_on_a_Pole.krn
!!!REG: Southwest
!!!LANG: Non-Tone
!!!LING_GROUP: Uto-Aztecan
**kern
*staff1
=1-
*clefF4
*k[b-e-a-d-g-]
*M2/4
2d-\
=2
8c\L
8B-\J
4B-\
=3
2d-\
=4
8c\L
8B-\J
8.B-\L
16F\Jk
=5||
*M3/4
8.B-\L
16B-\Jk
8.B-\L
16B-\Jk
8.B-\L
16F\Jk
=6
8B-\L
8B-\J
2B-\
=7
8.B-\L
16B-\Jk
8.F\L
16F\Jk
8.En\L
16E\Jk
=8
8.F\L
16F\Jk
4F\
4r
=9||
*M2/4
2d-\
=10
8c\L
8B-\J
4B-\
=11
2d-\
=12
8c\L
8B-\J
8.B-\L
16F\Jk
=13||
*M3/4
8.B-\L
16B-\Jk
8.B-\L
16B-\Jk
8.B-\L
16F\Jk
=14
8B-\L
8B-\J
2B-\
=15
8.B-\L
16B-\Jk
8.F\L
16F\Jk
4En\
=16||
*M2/4
8.F\L
16F\Jk
4F\
=17
4r
8.F\L
16F\Jk
=18||
*M3/4
8.B-\L
16B-\Jk
8.B-\L
16B-\Jk
8.B-\L
16F\Jk
=19||
*M2/4
2B-\
=20||
*M3/4
8.B-\L
16B-\Jk
8.F\L
16F\Jk
8.En\L
16E\Jk
=21||
*M2/4
8.F\L
16F\Jk
4F\
=22
4r
8.F\L
16F\Jk
=23||
*M3/4
8.B-\L
16B-\Jk
8.B-\L
16B-\Jk
8.B-\L
16F\Jk
=24||
*M2/4
2B-\
=25||
*M3/4
8.B-\L
16B-\Jk
8.F\L
16F\Jk
8.En\L
16E\Jk
=26
8.F\L
16F\Jk
4F\
4r
==
*-
